X:11692
T:Neptune. JC.236
M:C|
L:1/8
Q:180
S:John Clare,Poet,Helpstone (1793-1864)
R:Reel
O:England4
A:Northamptonshire
N:
Z:P Headford
K:D
dAFD dAFD|dAFDE2E2|dAFD EFGA|BGFED2D2:|!
|:fefa gecA|fefag2g2|fdfa gbeg|fedcd2d2:|]


